dist/assets/img/hands.svg

<svg width="171" height="41" viewBox="0 0 171 41" fill="none" xmlns="http://www.w3.org/2000/svg">
<path opacity="0.6" fill-rule="evenodd" clip-rule="evenodd" d="M0 20.0099V39.9687H5.6825H11.365L11.5535 31.9525L11.7421 23.9362L17.9278 23.7484L24.1135 23.5606L24.3021 31.601L24.4906 39.6415H30.1939H35.8972V20.0099V0.378236L30.0262 0.189118L24.1551 0V7.22379V14.4476H17.7809H11.4066V7.24931V0.0510417H5.7033H0V20.0099ZM128.604 0.487518C128.358 0.727024 128.156 3.33738 128.156 6.28801V11.652L125.024 10.1051C120.115 7.6812 114.352 8.31269 110.363 11.7116C105.501 15.8532 104.122 26.3437 107.495 33.5217C108.848 36.401 109.878 37.5782 112.152 38.8471C117.441 41.7984 123.022 41.71 127.062 38.6102C128.474 37.5272 128.827 37.4545 128.827 38.2464C128.827 39.7161 129.816 40.0728 134.055 40.133L137.886 40.1873L138.063 20.1192L138.241 0.0510417H133.646C131.119 0.0510417 128.85 0.247358 128.604 0.487518ZM48.4062 9.49255C44.9219 10.603 42.4359 12.6945 41.1785 15.5718C40.6726 16.7301 40.2586 17.834 40.2586 18.0258C40.2586 18.2175 42.4862 18.3739 45.209 18.3739C48.79 18.3739 50.3896 18.1023 50.9942 17.3923C52.1 16.0934 56.6425 16.1235 57.9918 17.4388C58.5715 18.0048 59.0459 19.0021 59.0459 19.6552C59.0459 20.7094 58.2716 20.871 52.1657 21.0916C44.6045 21.3645 41.4039 22.5888 39.5842 25.9053C38.3295 28.1917 38.4349 33.2946 39.7889 35.8153C42.4439 40.7599 51.1418 42.598 56.7123 39.3928C58.9768 38.0893 59.3458 38.037 59.8658 38.9426C60.3094 39.7155 61.5654 39.9687 64.9505 39.9687H69.4467L69.2615 29.6621C69.1595 23.9938 68.9207 18.4073 68.7314 17.2477C68.3195 14.7335 65.6973 11.5185 62.9134 10.1142C60.0812 8.68569 52.0201 8.34018 48.4062 9.49255ZM87.2269 8.98998C86.6734 9.21509 85.4193 9.94604 84.4397 10.6148C82.1832 12.1539 81.8591 12.1389 81.8591 10.4911C81.8591 9.25566 81.5102 9.16732 77.33 9.34597L72.8009 9.53967L72.6211 24.6999L72.4413 39.8601L77.2086 40.078C79.8314 40.1977 82.1013 40.1729 82.2536 40.023C82.4053 39.8732 82.5301 35.3991 82.5301 30.0803C82.5301 20.9692 82.6173 20.3161 84.0398 18.7862C84.8704 17.8929 86.5224 16.9716 87.7114 16.7386C89.47 16.3937 90.1899 16.6234 91.5695 17.9688C93.2382 19.5963 93.2657 19.7874 93.2657 29.7962V39.9687H98.298H103.33V28.6556C103.33 18.2136 103.214 17.1208 101.821 14.4607C99.6796 10.374 97.6096 9.12217 92.5075 8.82769C90.1571 8.69223 87.7805 8.76553 87.2269 8.98998ZM149.053 9.49582C143.787 11.1684 140.523 15.526 141.33 19.8057C142.215 24.4964 144.803 26.2678 153.168 27.9103C159.164 29.0875 161.034 29.8453 161.034 31.0972C161.034 31.6325 160.451 32.3745 159.737 32.7475C157.761 33.7789 152.612 33.5852 151.641 32.4432C151.027 31.7215 149.394 31.4617 145.474 31.4617C140.264 31.4617 140.154 31.495 140.58 32.934C141.385 35.6537 143.301 37.6672 146.629 39.2927C151.321 41.5831 160.037 41.5667 164.812 39.2574C170.321 36.5934 172.281 32.2155 170.17 27.2867C168.867 24.2477 165.368 22.386 158.719 21.1956C155.579 20.6329 152.475 19.7861 151.822 19.3136C150.695 18.4976 150.693 18.3955 151.799 17.3014C153.289 15.827 157.223 15.8048 158.873 17.2614C160.355 18.5696 169.757 18.9099 169.757 17.6547C169.757 15.5738 167.29 12.2802 164.566 10.7235C160.883 8.61829 153.623 8.04374 149.053 9.49582ZM124.434 17.3367C127.414 18.5512 128.156 20.0648 128.156 24.925C128.156 28.4953 127.937 29.1589 126.195 30.8577C124.857 32.1632 123.562 32.7704 122.118 32.7704C120.674 32.7704 119.379 32.1632 118.04 30.8577C116.284 29.1445 116.079 28.5097 116.079 24.7863C116.079 20.3148 117.127 18.0618 119.673 17.0599C121.661 16.2772 121.863 16.289 124.434 17.3367ZM59.0459 29.0574C59.0459 32.2293 53.4781 35.0713 50.4051 33.4674C48.6163 32.5336 48.4572 29.2066 50.1555 28.2421C50.8016 27.875 53.0662 27.5661 55.1878 27.555C58.7842 27.5366 59.0459 27.6387 59.0459 29.0574Z" fill="white"/>
</svg>

<svg width="171" height="41" fill="none" xmlns="http://www.w3.org/2000/svg"><path opacity=".6" fill-rule="evenodd" clip-rule="evenodd" d="M0 20.01v19.959h11.365l.188-8.017.19-8.016 6.185-.188 6.185-.187.19 8.04.188 8.04h11.406V.378L30.027.19 24.154 0v14.448H11.407V.05H0v19.96zM128.604.488c-.246.239-.448 2.85-.448 5.8v5.364l-3.132-1.547c-4.909-2.424-10.672-1.792-14.661 1.607-4.862 4.141-6.241 14.632-2.868 21.81 1.353 2.879 2.383 4.056 4.657 5.325 5.289 2.951 10.87 2.863 14.91-.237 1.412-1.083 1.765-1.155 1.765-.364 0 1.47.989 1.827 5.228 1.887l3.831.054.177-20.068.178-20.068h-4.595c-2.527 0-4.796.196-5.042.437zM48.406 9.493c-3.484 1.11-5.97 3.201-7.227 6.079-.506 1.158-.92 2.262-.92 2.454 0 .192 2.227.348 4.95.348 3.581 0 5.18-.272 5.785-.982 1.106-1.299 5.648-1.268 6.998.047.58.566 1.054 1.563 1.054 2.216 0 1.054-.774 1.216-6.88 1.437-7.561.273-10.762 1.497-12.582 4.813-1.255 2.287-1.15 7.39.205 9.91 2.655 4.945 11.353 6.783 16.923 3.578 2.265-1.304 2.634-1.356 3.154-.45.443.773 1.7 1.026 5.085 1.026h4.496l-.186-10.307c-.102-5.668-.34-11.255-.53-12.414-.411-2.515-3.034-5.73-5.818-7.134-2.832-1.428-10.893-1.774-14.507-.621zm38.82-.503c-.553.225-1.807.956-2.786 1.625-2.257 1.539-2.58 1.524-2.58-.124 0-1.235-.35-1.324-4.53-1.145l-4.53.194-.179 15.16-.18 15.16 4.768.218c2.622.12 4.892.095 5.045-.055.151-.15.276-4.624.276-9.943 0-9.11.087-9.764 1.51-11.294.83-.893 2.482-1.814 3.671-2.047 1.759-.345 2.479-.116 3.859 1.23 1.668 1.627 1.696 1.818 1.696 11.827V39.97h10.064V28.656c0-10.442-.116-11.535-1.509-14.195-2.141-4.087-4.211-5.339-9.314-5.633-2.35-.136-4.727-.062-5.28.162zm61.827.506c-5.266 1.672-8.53 6.03-7.723 10.31.885 4.69 3.473 6.462 11.838 8.104 5.996 1.177 7.866 1.935 7.866 3.187 0 .535-.583 1.277-1.297 1.65-1.976 1.032-7.125.838-8.096-.304-.614-.721-2.247-.981-6.167-.981-5.21 0-5.32.033-4.894 1.472.805 2.72 2.721 4.733 6.049 6.359 4.692 2.29 13.408 2.274 18.183-.036 5.509-2.664 7.469-7.041 5.358-11.97-1.303-3.04-4.802-4.901-11.451-6.091-3.14-.563-6.244-1.41-6.897-1.882-1.127-.816-1.129-.919-.023-2.013 1.49-1.474 5.424-1.496 7.074-.04 1.482 1.309 10.884 1.649 10.884.394 0-2.081-2.467-5.375-5.191-6.932-3.683-2.105-10.943-2.68-15.513-1.227zm-24.619 7.84c2.98 1.215 3.722 2.729 3.722 7.589 0 3.57-.219 4.234-1.961 5.933-1.338 1.305-2.633 1.912-4.077 1.912s-2.739-.607-4.078-1.912c-1.756-1.713-1.961-2.348-1.961-6.072 0-4.471 1.048-6.724 3.594-7.726 1.988-.783 2.19-.771 4.761.277zM59.046 29.058c0 3.172-5.568 6.014-8.64 4.41-1.79-.933-1.949-4.26-.25-5.225.646-.367 2.91-.676 5.032-.687 3.596-.018 3.858.084 3.858 1.502z" fill="#fff"/></svg>
